X:1
T:Title
%%score { ( 1 3 ) | ( 2 4 ) }
L:1/8
M:4/4
K:Eb
V:1 treble nm="Grand Piano"
V:3 treble 
V:2 bass 
V:4 bass 
V:1
 z4 z2[Q:1/4=92] [EG][FA] | [GB][Ge][Bd][DAc] [EGB][B,EG][=A,E][B,DF] | [B,EG]6 [B,EG][B,FA] | %3
 [B,GB][Ge][Bd][DAc] [EGB][B,EG][A,E][B,DF] | [B,EG]6 [B,EG][B,GB] | %5
 [B,GB][FA][FA][=EG] [FA][FA][FA][Ac] | [Ac][GB][GB][_G=A] [=GB][GB][EG][GB] | %7
 [Ge][Ge][Ae][Be] ee z2 |[M:3/4] B2 [Af]2 [Ge]2 |[M:1/4] BB |[M:4/4] e6 z2 |[M:3/4] [GB]2 [EG]4 | %12
[M:1/4] EF |[M:4/4] G2 B2 cBAG |[M:3/4] [EG]2 [DF]4 |[M:1/4] BB | %16
[M:4/4] e-[Ge-][Ge-][Ge-] [Ge][ce][Bd][Ac] |[M:3/4] [GB]2 [EG]4 |[M:1/4] cc | %19
[M:4/4] B3 [EG] [DF]2 [DB]2 |[M:3/4] E6 |] %21
V:2
 z4 z2 [E,B,][E,B,] | [E,B,][E,B,][E,C]E, E,E,C,B,, | E,6 E,E, | E,[E,B,][E,C]E, E,E,C,B,, | %4
 E,6 E,E, | E,[B,,B,][B,,B,][B,,B,] [B,,B,][B,,B,][B,,B,][B,,B,] | %6
 [E,B,][E,E][E,E][E,E] [E,E][E,E][E,B,][E,E] | [E,B,][E,B,][F,B,][K:treble][G,_D] [A,CA][A,CA] z2 | %8
[M:3/4] [B,DA]2[K:bass] [B,,B,]2 [E,B,]2 |[M:1/4] z2 | %10
[M:4/4] [E,B,][E,B,][E,B,][E,B,] [E,B,][E,B,][E,C][E,D] |[M:3/4] [E,E]E, E,E, E,E, | %12
[M:1/4] [E,G,][E,A,D] |[M:4/4] [E,B,E]2 [E,G,E]2 A,G,CB, |[M:3/4] B,,B,, B,,B,, B,,B,, | %15
[M:1/4] z2 |[M:4/4] [E,B,][E,B,][E,B,][E,B,] [E,B,][E,B,][E,C][E,D] |[M:3/4] [E,E]E, E,E, E,E, | %18
[M:1/4] [A,E][A,E] |[M:4/4] [G,B,E]3 [C,=A,] [B,,B,]2 [B,,A,]2 |[M:3/4] [E,G,]6 |] %21
V:3
 x8 | x8 | x8 | x8 | x8 | x8 | x8 | x8 |[M:3/4] x6 |[M:1/4] x2 |[M:4/4] GGGG G[ce][Bd][Ac] | %11
[M:3/4] z E B,B, B,B, |[M:1/4] x2 |[M:4/4] x8 |[M:3/4] B,B, B,B, B,B, |[M:1/4] x2 | %16
[M:4/4] .G2 z2 z4 |[M:3/4] z E B,B, B,B, |[M:1/4] x2 |[M:4/4] x8 |[M:3/4] x6 |] %21
V:4
 x8 | x8 | x8 | x8 | x8 | x8 | x8 | x3[K:treble] x5 |[M:3/4] x2[K:bass] x4 |[M:1/4] x2 | %10
[M:4/4] x8 |[M:3/4] x6 |[M:1/4] x2 |[M:4/4] z4 [E,E]2 [E,E]2 |[M:3/4] x6 |[M:1/4] x2 |[M:4/4] x8 | %17
[M:3/4] x6 |[M:1/4] x2 |[M:4/4] x8 |[M:3/4] x6 |] %21

